src/assets/fleet-icons/geofen.svg

<svg width="20" height="20" viewBox="0 0 20 20" fill="none" xmlns="http://www.w3.org/2000/svg">
    <path fill-rule="evenodd" clip-rule="evenodd"
        d="M10 2.99965C9.60603 2.99965 9.21591 3.07725 8.85192 3.22802C8.48794 3.37879 8.15721 3.59977 7.87863 3.87835C7.60005 4.15693 7.37906 4.48766 7.2283 4.85165C7.07753 5.21563 6.99993 5.60575 6.99993 5.99972C6.99993 6.3937 7.07753 6.78381 7.2283 7.1478C7.37906 7.51178 7.60005 7.84251 7.87863 8.12109C8.15721 8.39967 8.48794 8.62066 8.85192 8.77143C9.21591 8.92219 9.60603 8.99979 10 8.99979C10.7957 8.99979 11.5587 8.68371 12.1214 8.12109C12.684 7.55847 13.0001 6.79539 13.0001 5.99972C13.0001 5.20405 12.684 4.44097 12.1214 3.87835C11.5587 3.31573 10.7957 2.99965 10 2.99965ZM5.99991 5.99972C5.99998 5.22993 6.22217 4.47651 6.63982 3.82986C7.05746 3.18322 7.65283 2.67082 8.35447 2.35414C9.05611 2.03747 9.83422 1.92998 10.5954 2.04457C11.3566 2.15915 12.0686 2.49095 12.646 3.00015C13.2233 3.50935 13.6414 4.17431 13.8502 4.91525C14.0589 5.65619 14.0495 6.44164 13.8229 7.17734C13.5964 7.91304 13.1624 8.56774 12.5729 9.06289C11.9835 9.55803 11.2638 9.87259 10.5 9.96881V15.4999C10.5 15.6326 10.4473 15.7597 10.3536 15.8535C10.2598 15.9473 10.1326 16 10 16C9.86739 16 9.74021 15.9473 9.64644 15.8535C9.55267 15.7597 9.49999 15.6326 9.49999 15.4999V9.96981C8.53293 9.84798 7.64363 9.37724 6.99914 8.64602C6.35466 7.9148 5.99933 6.97442 5.99991 5.99972ZM8.49296 14.5739C8.51465 14.7047 8.48354 14.8387 8.40647 14.9465C8.3294 15.0543 8.21268 15.1271 8.08195 15.1489C7.36994 15.2669 6.80193 15.4439 6.42692 15.6419C6.28916 15.7082 6.16396 15.7978 6.05691 15.907C6.03271 15.9333 6.0134 15.9638 5.99991 15.997V16L6.00191 16.008C6.00584 16.0196 6.01122 16.0307 6.01791 16.041C6.05738 16.0988 6.10641 16.1496 6.16291 16.191C6.32791 16.321 6.59792 16.461 6.97593 16.586C7.72695 16.836 8.79597 17 10 17C11.204 17 12.2731 16.837 13.0241 16.586C13.4021 16.46 13.6721 16.321 13.8371 16.191C13.8939 16.1496 13.9433 16.0989 13.9831 16.041C13.9894 16.0306 13.9945 16.0195 13.9981 16.008L14.0001 16V15.996C13.9866 15.9628 13.9673 15.9323 13.9431 15.906C13.836 15.7972 13.7108 15.7079 13.5731 15.6419C13.1971 15.4439 12.6301 15.2669 11.918 15.1489C11.8517 15.1399 11.7879 15.1177 11.7303 15.0836C11.6727 15.0495 11.6226 15.0042 11.5828 14.9503C11.5431 14.8964 11.5146 14.8352 11.499 14.7701C11.4834 14.705 11.481 14.6374 11.4919 14.5714C11.5029 14.5054 11.5271 14.4422 11.5629 14.3857C11.5987 14.3292 11.6456 14.2804 11.7006 14.2423C11.7556 14.2042 11.8177 14.1776 11.8833 14.1639C11.9488 14.1503 12.0164 14.1499 12.082 14.1629C12.8521 14.2899 13.5341 14.4909 14.0391 14.7569C14.5001 14.9999 15.0001 15.3999 15.0001 16C15.0001 16.426 14.7401 16.752 14.4561 16.977C14.1661 17.205 13.7761 17.39 13.3401 17.535C12.4621 17.828 11.281 18 10 18C8.71897 18 7.53794 17.828 6.65992 17.535C6.22391 17.39 5.8339 17.205 5.5439 16.977C5.25989 16.752 4.99988 16.426 4.99988 16C4.99988 15.4009 5.4999 14.9999 5.96091 14.7569C6.46592 14.4909 7.14793 14.2899 7.91795 14.1629C8.0487 14.1412 8.18271 14.1723 8.29053 14.2494C8.39835 14.3265 8.47116 14.4432 8.49296 14.5739Z"
        fill="currentColor" />
</svg>

<svg width="20" height="20" fill="none" xmlns="http://www.w3.org/2000/svg">
    <path fill-rule="evenodd" clip-rule="evenodd"
        d="M10 3a3 3 0 1 0 0 6 3 3 0 0 0 0-6ZM6 6a4 4 0 1 1 4.5 3.969v5.53a.5.5 0 0 1-1 0V9.97A4 4 0 0 1 6 6Zm2.493 8.574a.5.5 0 0 1-.411.575c-.712.118-1.28.295-1.655.493a1.319 1.319 0 0 0-.37.265.3.3 0 0 0-.057.09V16l.002.008c.004.012.01.023.016.033.04.058.088.109.145.15.165.13.435.27.813.395.751.25 1.82.414 3.024.414s2.273-.163 3.024-.414c.378-.126.648-.265.813-.395a.62.62 0 0 0 .146-.15.15.15 0 0 0 .015-.033L14 16v-.004a.3.3 0 0 0-.057-.09 1.32 1.32 0 0 0-.37-.264c-.376-.198-.943-.375-1.655-.493a.5.5 0 1 1 .164-.986c.77.127 1.452.328 1.957.594C14.5 15 15 15.4 15 16c0 .426-.26.752-.544.977-.29.228-.68.413-1.116.558-.878.293-2.059.465-3.34.465-1.281 0-2.462-.172-3.34-.465-.436-.145-.826-.33-1.116-.558C5.26 16.752 5 16.426 5 16c0-.6.5-1 .96-1.243.506-.266 1.188-.467 1.958-.594a.5.5 0 0 1 .575.41Z"
        fill="currentColor" />
</svg>
